X:47
T:Welcome Home Again THO1.047
M:2/4
L:1/8
Z:vmp. Peter Dunk 2012.from a transcription by Fynn Titford-Mock 2006
B:Thompson's Compleat Collection of 200 Favourite Country Dances Vol.I,1758
Q:1/4=140
U:w=!wedge!
K:Bb
F|B>cB>F|B>cB>F|B>cd>e|f3 g|f>gf>b|f>gf>b|fedc|B3:|
|:g|w_a(agf)|wg(gfe)|wf(fed)|e3 e|wf(fed)|we(edc)|dcBA|B2F2|
B>cB>F|B>cB>F|Bcde|f3 g|ggbb|ffdd|BBFF|B,3:|

